assets/layer4.svg

<svg width="1109" height="1203" viewBox="0 0 1109 1203" fill="none" xmlns="http://www.w3.org/2000/svg">
<path opacity="0.7" d="M444.47 511.29L696.46 566.98C703.85 568.61 707.82 576.68 704.6 583.53L502.77 1012.78C500.31 1018.02 494.41 1020.7 488.84 1019.11L223.29 943.11C216.09 941.05 212.6 932.89 216.09 926.26L431.47 517.32C433.95 512.61 439.27 510.15 444.46 511.29H444.47Z" fill="#42D9EB"/>
<path d="M368.47 690.97C366.63 694.3 368.4 698.46 372.07 699.45L534.97 743.33C537.46 744 540.08 742.86 541.28 740.58C542.93 737.46 541.27 733.61 537.86 732.67L375.13 688.15C372.52 687.44 369.77 688.6 368.46 690.97H368.47Z" fill="#B5F5FD"/>
<path d="M405.91 734.74L405.58 735.34C403.85 738.48 405.52 742.41 408.98 743.34L572.29 787.33C574.78 788 577.4 786.86 578.6 784.58C580.25 781.46 578.59 777.61 575.18 776.67L412.2 732.08C409.74 731.41 407.14 732.51 405.91 734.74Z" fill="#B5F5FD"/>
<path d="M337.59 751.07L337.26 751.67C335.53 754.81 337.2 758.74 340.66 759.67L503.97 803.66C506.46 804.33 509.08 803.19 510.28 800.91C511.93 797.79 510.27 793.94 506.86 793L343.88 748.41C341.42 747.74 338.82 748.84 337.59 751.07Z" fill="#B5F5FD"/>
<path d="M321.74 847.37L304.66 880.29C302.65 884.16 304.69 888.9 308.89 890.1L464.57 934.55C467.94 935.51 471.49 933.8 472.83 930.56L486.26 898.22C487.83 894.44 485.78 890.12 481.85 888.96L329.82 843.94C326.65 843 323.26 844.44 321.74 847.38V847.37Z" fill="#42D9EB"/>
<path d="M572.238 649.977C583.934 618.46 569.768 584.134 540.596 573.309C511.424 562.483 478.294 579.257 466.598 610.774C454.902 642.291 469.069 676.617 498.24 687.443C527.412 698.269 560.542 681.495 572.238 649.977Z" fill="#42D9EB"/>
</svg>

<?xml version="1.0" encoding="UTF-8"?><svg xmlns="http://www.w3.org/2000/svg" viewBox="0 0 1108.84 1202.77"><defs><style>.cls-1{fill:#B4FFD2;}.cls-2{fill:#097D37;}.cls-3{fill:#ff4cb3;}.cls-3,.cls-4{opacity:0;}.cls-5{fill:#56DB8B;opacity:.7;}</style></defs><g id="Layer_1"><rect class="cls-4" y="160.93" width="1024" height="1024"/></g><g id="Layer_5"><polygon class="cls-3" points="710.88 570.17 710.88 580.49 501.35 1029.98 209.33 948.33 209.33 939.11 710.88 570.17"/><path class="cls-5" d="M444.47,511.29l251.99,55.69c7.39,1.63,11.36,9.7,8.14,16.55l-201.83,429.25c-2.46,5.24-8.36,7.92-13.93,6.33l-265.55-76c-7.2-2.06-10.69-10.22-7.2-16.85l215.38-408.94c2.48-4.71,7.8-7.17,12.99-6.03Z"/><path class="cls-1" d="M368.47,690.97h0c-1.84,3.33-.07,7.49,3.6,8.48l162.9,43.88c2.49,.67,5.11-.47,6.31-2.75h0c1.65-3.12-.01-6.97-3.42-7.91l-162.73-44.52c-2.61-.71-5.36,.45-6.67,2.82Z"/><path class="cls-1" d="M405.91,734.74l-.33,.6c-1.73,3.14-.06,7.07,3.4,8l163.31,43.99c2.49,.67,5.11-.47,6.31-2.75h0c1.65-3.12-.01-6.97-3.42-7.91l-162.98-44.59c-2.46-.67-5.06,.43-6.29,2.66Z"/><path class="cls-1" d="M337.59,751.07l-.33,.6c-1.73,3.14-.06,7.07,3.4,8l163.31,43.99c2.49,.67,5.11-.47,6.31-2.75h0c1.65-3.12-.01-6.97-3.42-7.91l-162.98-44.59c-2.46-.67-5.06,.43-6.29,2.66Z"/><path class="cls-2" d="M321.74,847.37l-17.08,32.92c-2.01,3.87,.03,8.61,4.23,9.81l155.68,44.45c3.37,.96,6.92-.75,8.26-3.99l13.43-32.34c1.57-3.78-.48-8.1-4.41-9.26l-152.03-45.02c-3.17-.94-6.56,.5-8.08,3.44Z"/><ellipse class="cls-2" cx="519.4" cy="630.34" rx="60.87" ry="56.34" transform="translate(-252.25 898.02) rotate(-69.64)"/></g></svg>
